!!!OTL: ES KAM EIN REICHER VOGEL
!!!ARE: Europa, Mitteleuropa, Deutschland, Oberdiebach am Rhein
!!!SCT: K2165
!!!YEM: Copyright 1995, estate of Helmut Schaffrath.
**kern
*ICvox
*Ivox
*M3/4
*k[f#]
*G:
{4dd
=1
8dd
8dd
4b
4dd
=2
4a
4dd
8r}
{8dd
=3
8dd
8dd
4b
4dd
=4
4cc
4b
8r}
{8cc
=5
8cc
8cc
4a
4cc
=6
8cc
8b
4a
8r}
{8dd
=7
8dd
8dd
4b
4ee
=8
4dd
4.r}
{8dd
=9
8dd
8dd
4b
4dd
=10
8cc
8b
4a
8r}
{8dd
=11
8dd
8dd
4b
4dd
=12
8cc
8b
8a}
{8cc
8b
8dd
=13
8.cc
16b
4a
8r}
{8dd
=14
8dd
8dd
4b
4dd
=15
8cc
8a
4g
4r}
==
!!!AGN: Kinder - Lied, Reigen, Tanz - Spiel
!!!ONB: ESAC (Essen Associative Code) Database: KINDER
!!!AMT: simple triple
!!!AIN: vox
!!!EED: Helmut Schaffrath
!!!EEV: 1.0
*-
